icons/svg/extension.svg

<svg width="24" height="24" viewBox="0 0 24 24" fill="none" xmlns="http://www.w3.org/2000/svg">
<path d="M6 9C5.58579 9 5.25 9.33579 5.25 9.75C5.25 10.1642 5.58579 10.5 6 10.5V9ZM9.99998 19C9.99998 19.4142 10.3358 19.75 10.75 19.75C11.1642 19.75 11.5 19.4142 11.5 19H9.99998ZM18.5 9C18.0858 9 17.75 9.33579 17.75 9.75C17.75 10.1642 18.0858 10.5 18.5 10.5L18.5 9ZM16 5C16 4.58579 15.6642 4.25 15.25 4.25C14.8358 4.25 14.5 4.58579 14.5 5H16ZM15.7329 5.73847L15.5866 6.47406L15.7329 5.73847ZM15.2615 5.26705L14.5259 5.41337L15.2615 5.26705ZM19.2384 14.733L18.5028 14.8792L19.2384 14.733ZM18.5 14.25V15H18.5L18.5 14.25ZM18.7669 14.2615L18.9131 13.5259L18.7669 14.2615ZM6.7384 9.26699L7.47401 9.41323L6.7384 9.26699ZM6.26691 9.73848L6.12067 9.00288L6.26691 9.73848ZM15.2615 18.7329L15.9971 18.8793L15.2615 18.7329ZM15.7329 18.2615L15.5866 17.5259L15.7329 18.2615ZM6.26691 14.2615L6.12067 14.9971L6.26691 14.2615ZM6.7384 14.733L6.0028 14.8792L6.7384 14.733ZM18.7669 9.73848L18.9131 10.4741L18.7669 9.73848ZM19.2384 9.26699L18.5028 9.12075L19.2384 9.26699ZM10.267 18.2615L10.1207 18.9971L10.267 18.2615ZM10.7384 18.7329L11.474 18.5866L10.7384 18.7329ZM10.7384 5.26705L11.474 5.41337L10.7384 5.26705ZM10.267 5.73847L10.4133 6.47406L10.267 5.73847ZM11.5 5C11.5 4.17157 12.1715 3.5 13 3.5V2C11.3431 2 9.99998 3.34315 9.99998 5H11.5ZM9.74992 6.5H9.99998V5H9.74992V6.5ZM7.49992 8.75C7.49992 7.50736 8.50728 6.5 9.74992 6.5V5C7.67885 5 5.99992 6.67893 5.99992 8.75H7.49992ZM7.49992 9.00008V8.75H5.99992V9.00008H7.49992ZM4.5 12C4.5 11.1716 5.17157 10.5 6 10.5V9C4.34315 9 3 10.3431 3 12H4.5ZM6 13.5C5.17157 13.5 4.5 12.8284 4.5 12H3C3 13.6569 4.34315 15 6 15V13.5ZM7.49992 15.25V14.9999H5.99992V15.25H7.49992ZM9.74992 17.5C8.50728 17.5 7.49992 16.4926 7.49992 15.25H5.99992C5.99992 17.3211 7.67885 19 9.74992 19V17.5ZM9.99998 17.5H9.74992V19H9.99998V17.5ZM13 20.5C12.1715 20.5 11.5 19.8284 11.5 19H9.99998C9.99998 20.6569 11.3431 22 13 22V20.5ZM14.5 19C14.5 19.8284 13.8284 20.5 13 20.5V22C14.6568 22 16 20.6569 16 19H14.5ZM16.2499 17.5H16V19H16.2499V17.5ZM18.4999 15.25C18.4999 16.4926 17.4926 17.5 16.2499 17.5V19C18.321 19 19.9999 17.3211 19.9999 15.25H18.4999ZM18.4999 14.9999V15.25H19.9999V14.9999H18.4999ZM18.5 13.5C17.6716 13.5 17 12.8284 17 12H15.5C15.5 13.6569 16.8431 15 18.5 15V13.5ZM17 12C17 11.1716 17.6716 10.5 18.5 10.5V9C16.8431 9 15.5 10.3431 15.5 12H17ZM18.4999 8.75V9.00008H19.9999V8.75H18.4999ZM16.2499 6.5C17.4926 6.5 18.4999 7.50736 18.4999 8.75H19.9999C19.9999 6.67893 18.321 5 16.2499 5V6.5ZM16 6.5H16.2499V5H16V6.5ZM13 3.5C13.8284 3.5 14.5 4.17157 14.5 5H16C16 3.34315 14.6568 2 13 2V3.5ZM16 5C15.9644 5 15.9366 5 15.9126 4.99984C15.8886 4.99968 15.8727 4.99938 15.8616 4.999C15.8382 4.9982 15.8516 4.99739 15.8792 5.00288L15.5866 6.47406C15.7353 6.50363 15.8965 6.5 16 6.5V5ZM14.5 5C14.5 5.10345 14.4963 5.2647 14.5259 5.41337L15.9971 5.12074C16.0026 5.14837 16.0018 5.16179 16.001 5.1384C16.0006 5.12724 16.0003 5.11139 16.0001 5.08739C16 5.06335 16 5.03557 16 5H14.5ZM15.8792 5.00288C15.9387 5.01472 15.9853 5.06123 15.9971 5.12074L14.5259 5.41337C14.6324 5.9489 15.0511 6.36754 15.5866 6.47406L15.8792 5.00288ZM19.9999 14.9999C19.9999 14.8965 20.0035 14.7354 19.974 14.5868L18.5028 14.8792C18.4973 14.8516 18.4981 14.8382 18.4989 14.8616C18.4993 14.8727 18.4996 14.8886 18.4998 14.9126C18.4999 14.9366 18.4999 14.9644 18.4999 14.9999H19.9999ZM18.5 15C18.5356 15 18.5633 15 18.5873 15.0002C18.6113 15.0003 18.6272 15.0006 18.6383 15.001C18.6617 15.0018 18.6483 15.0026 18.6207 14.9971L18.9131 13.5259C18.7646 13.4964 18.6034 13.5 18.5 13.5L18.5 15ZM19.974 14.5868C19.8675 14.0511 19.4488 13.6324 18.9131 13.5259L18.6207 14.9971C18.5612 14.9853 18.5146 14.9388 18.5028 14.8792L19.974 14.5868ZM5.99992 9.00008C5.99992 9.03563 5.99992 9.0634 5.99976 9.08742C5.9996 9.11141 5.9993 9.12725 5.99892 9.13841C5.99812 9.16178 5.99731 9.14837 6.0028 9.12075L7.47401 9.41323C7.50355 9.26464 7.49992 9.10347 7.49992 9.00008H5.99992ZM6 10.5C6.10339 10.5 6.26456 10.5036 6.41315 10.4741L6.12067 9.00288C6.14829 8.99739 6.1617 8.9982 6.13833 8.999C6.12717 8.99938 6.11133 8.99968 6.08734 8.99984C6.06332 9 6.03555 9 6 9V10.5ZM6.0028 9.12075C6.01463 9.06124 6.06115 9.01471 6.12067 9.00288L6.41315 10.4741C6.9488 10.3676 7.36752 9.94888 7.47401 9.41323L6.0028 9.12075ZM16 19C16 18.9644 16 18.9366 16.0001 18.9126C16.0003 18.8886 16.0006 18.8728 16.001 18.8616C16.0018 18.8382 16.0026 18.8516 15.9971 18.8793L14.5259 18.5866C14.4963 18.7353 14.5 18.8966 14.5 19H16ZM16 17.5C15.8965 17.5 15.7353 17.4964 15.5866 17.5259L15.8792 18.9971C15.8516 19.0026 15.8382 19.0018 15.8616 19.001C15.8727 19.0006 15.8886 19.0003 15.9126 19.0002C15.9366 19 15.9644 19 16 19V17.5ZM15.9971 18.8793C15.9853 18.9388 15.9387 18.9853 15.8792 18.9971L15.5866 17.5259C15.0511 17.6325 14.6324 18.0511 14.5259 18.5866L15.9971 18.8793ZM6 15C6.03555 15 6.06332 15 6.08734 15.0002C6.11133 15.0003 6.12717 15.0006 6.13833 15.001C6.1617 15.0018 6.14829 15.0026 6.12067 14.9971L6.41315 13.5259C6.26456 13.4964 6.10339 13.5 6 13.5V15ZM7.49992 14.9999C7.49992 14.8965 7.50355 14.7354 7.47401 14.5868L6.0028 14.8792C5.99731 14.8516 5.99812 14.8382 5.99892 14.8616C5.9993 14.8727 5.9996 14.8886 5.99976 14.9126C5.99992 14.9366 5.99992 14.9644 5.99992 14.9999H7.49992ZM6.12067 14.9971C6.06115 14.9853 6.01463 14.9388 6.0028 14.8792L7.47401 14.5868C7.36752 14.0511 6.9488 13.6324 6.41315 13.5259L6.12067 14.9971ZM18.5 10.5C18.6034 10.5 18.7646 10.5036 18.9131 10.4741L18.6207 9.00288C18.6483 8.99739 18.6617 8.9982 18.6383 8.999C18.6272 8.99938 18.6113 8.99968 18.5873 8.99984C18.5633 9 18.5356 9 18.5 9L18.5 10.5ZM18.4999 9.00008C18.4999 9.03563 18.4999 9.0634 18.4998 9.08742C18.4996 9.11141 18.4993 9.12725 18.4989 9.13841C18.4981 9.16178 18.4973 9.14837 18.5028 9.12075L19.974 9.41323C20.0035 9.26464 19.9999 9.10347 19.9999 9.00008H18.4999ZM18.9131 10.4741C19.4488 10.3676 19.8675 9.94888 19.974 9.41323L18.5028 9.12075C18.5146 9.06124 18.5612 9.01471 18.6207 9.00288L18.9131 10.4741ZM9.99998 19C10.0355 19 10.0633 19 10.0874 19.0002C10.1114 19.0003 10.1272 19.0006 10.1384 19.001C10.1618 19.0018 10.1483 19.0026 10.1207 18.9971L10.4133 17.5259C10.2647 17.4964 10.1034 17.5 9.99998 17.5V19ZM11.5 19C11.5 18.8966 11.5036 18.7353 11.474 18.5866L10.0029 18.8793C9.99736 18.8516 9.99817 18.8382 9.99897 18.8616C9.99936 18.8728 9.99965 18.8886 9.99981 18.9126C9.99997 18.9366 9.99998 18.9644 9.99998 19H11.5ZM10.1207 18.9971C10.0612 18.9853 10.0147 18.9388 10.0029 18.8793L11.474 18.5866C11.3675 18.0511 10.9489 17.6325 10.4133 17.5259L10.1207 18.9971ZM9.99998 5C9.99998 5.03557 9.99997 5.06335 9.99981 5.08739C9.99965 5.11139 9.99936 5.12724 9.99897 5.1384C9.99817 5.16179 9.99736 5.14837 10.0029 5.12074L11.474 5.41337C11.5036 5.2647 11.5 5.10345 11.5 5H9.99998ZM9.99998 6.5C10.1034 6.5 10.2647 6.50363 10.4133 6.47406L10.1207 5.00288C10.1483 4.99739 10.1618 4.9982 10.1384 4.999C10.1272 4.99938 10.1114 4.99968 10.0874 4.99984C10.0633 5 10.0355 5 9.99998 5V6.5ZM10.0029 5.12074C10.0147 5.06123 10.0612 5.01472 10.1207 5.00288L10.4133 6.47406C10.9489 6.36754 11.3675 5.9489 11.474 5.41337L10.0029 5.12074Z" fill="currentColor"/>
</svg>

<svg xmlns="http://www.w3.org/2000/svg" width="24" height="24" fill="none" viewBox="0 0 24 24"><path fill="currentColor" d="M6 9a.75.75 0 0 0 0 1.5zm4 10a.75.75 0 0 0 1.5 0zm8.5-10a.75.75 0 0 0 0 1.5zM16 5a.75.75 0 0 0-1.5 0zm-.267.738-.146.736zm-.472-.471-.735.146zm3.977 9.466-.735.146zm-.738-.483V15zm.267.011.146-.735zM6.738 9.268l.736.146zm-.471.471-.146-.735zm8.994 8.995.736.146zm.472-.471-.146-.736zm-9.466-4-.146.735zm.471.471-.735.146zm12.029-4.995.146.736zm.471-.471-.735-.146zm-8.971 8.995-.146.735zm.471.47.736-.145zm0-13.465.736.146zm-.471.471.146.736zM11.5 5A1.5 1.5 0 0 1 13 3.5V2a3 3 0 0 0-3 3zM9.75 6.5H10V5h-.25zM7.5 8.75A2.25 2.25 0 0 1 9.75 6.5V5A3.75 3.75 0 0 0 6 8.75zm0 .25v-.25H6V9zm-3 3A1.5 1.5 0 0 1 6 10.5V9a3 3 0 0 0-3 3zM6 13.5A1.5 1.5 0 0 1 4.5 12H3a3 3 0 0 0 3 3zm1.5 1.75V15H6v.25zm2.25 2.25a2.25 2.25 0 0 1-2.25-2.25H6A3.75 3.75 0 0 0 9.75 19zm.25 0h-.25V19H10zm3 3a1.5 1.5 0 0 1-1.5-1.5H10a3 3 0 0 0 3 3zm1.5-1.5a1.5 1.5 0 0 1-1.5 1.5V22a3 3 0 0 0 3-3zm1.75-1.5H16V19h.25zm2.25-2.25a2.25 2.25 0 0 1-2.25 2.25V19A3.75 3.75 0 0 0 20 15.25zm0-.25v.25H20V15zm0-1.5A1.5 1.5 0 0 1 17 12h-1.5a3 3 0 0 0 3 3zM17 12a1.5 1.5 0 0 1 1.5-1.5V9a3 3 0 0 0-3 3zm1.5-3.25V9H20v-.25zM16.25 6.5a2.25 2.25 0 0 1 2.25 2.25H20A3.75 3.75 0 0 0 16.25 5zm-.25 0h.25V5H16zm-3-3A1.5 1.5 0 0 1 14.5 5H16a3 3 0 0 0-3-3zM16 5h-.087l-.051-.001c-.024 0-.01-.002.017.004l-.292 1.471c.148.03.31.026.413.026zm-1.5 0c0 .103-.004.265.026.413l1.471-.292c.006.027.005.04.004.017v-.05L16 5zm1.38.003a.15.15 0 0 1 .117.118l-1.471.292a1.35 1.35 0 0 0 1.06 1.061zM20 15c0-.104.003-.265-.026-.413l-1.471.292c-.006-.027-.005-.04-.004-.017V15zm-1.5 0 .138.001c.024 0 .01.002-.017-.004l.292-1.471c-.148-.03-.31-.026-.413-.026zm1.474-.413a1.35 1.35 0 0 0-1.06-1.061l-.293 1.471a.15.15 0 0 1-.118-.118zM6 9l-.001.138c0 .024-.002.01.004-.017l1.471.292c.03-.148.026-.31.026-.413zm0 1.5c.103 0 .265.004.413-.026l-.292-1.471c.027-.006.04-.005.017-.004A2 2 0 0 1 6 9zm.003-1.38a.15.15 0 0 1 .118-.117l.292 1.471a1.35 1.35 0 0 0 1.061-1.06zM16 19v-.087l.001-.051c0-.024.002-.01-.004.017l-1.471-.292c-.03.148-.026.31-.026.413zm0-1.5c-.104 0-.265-.004-.413.026l.292 1.471c-.027.006-.04.005-.017.004h.05L16 19zm-.003 1.38a.15.15 0 0 1-.118.117l-.292-1.471a1.35 1.35 0 0 0-1.061 1.06zM6 15l.138.001c.024 0 .01.002-.017-.004l.292-1.471c-.148-.03-.31-.026-.413-.026zm1.5 0c0-.104.004-.265-.026-.413l-1.471.292c-.006-.027-.005-.04-.004-.017V15zm-1.38-.003a.15.15 0 0 1-.117-.118l1.471-.292a1.35 1.35 0 0 0-1.06-1.061zM18.5 10.5c.103 0 .265.004.413-.026l-.292-1.471c.027-.006.04-.005.017-.004A2 2 0 0 1 18.5 9zm0-1.5v.087l-.001.051c0 .024-.002.01.004-.017l1.471.292c.03-.148.026-.31.026-.413zm.413 1.474a1.35 1.35 0 0 0 1.061-1.06l-1.471-.293a.15.15 0 0 1 .118-.118zM10 19l.138.001c.024 0 .01.002-.017-.004l.292-1.471c-.148-.03-.31-.026-.413-.026zm1.5 0c0-.103.004-.265-.026-.413l-1.471.292c-.006-.027-.005-.04-.004-.017A2 2 0 0 1 10 19zm-1.38-.003a.15.15 0 0 1-.117-.118l1.471-.292a1.35 1.35 0 0 0-1.06-1.061zM10 5l-.001.138c0 .024-.002.01.004-.017l1.471.292c.03-.148.026-.31.026-.413zm0 1.5c.103 0 .265.004.413-.026l-.292-1.471c.027-.006.04-.005.017-.004h-.05L10 5zm.003-1.38a.15.15 0 0 1 .118-.117l.292 1.471a1.35 1.35 0 0 0 1.061-1.06z"/></svg>
